X: 37515
T: Slip On Ice
R: slip jig
M: 9/8
K: Dminor
|:D2E FGA cAG|AFD GFEECA,|DEF FGA cdA|GECCA,E D3:|
|:dAAADA cBA|dBBBEB cde|dAAADA cBA|GECCA,E D3:|
|:A2ddc2 Bd2|A2ccB2 A2G|A2ffe2 cd2|GECCA,E D3:|

